X:1
T: O'Mahony's Frolics
C:
R:Jig
Q:180
K:D
M:6/8
L:1/16
G2|F4D2 D2F2D2|d2A2F2 A2F2D2|EFG2E2 C2E2G2|c2G2E2 C2E2G2|F4D2 D2F2D2|d2A2F2 A2F2D2|G2B2G2 E2F2G2|A2F2D2 D4G2|
F4D2 D2F2D2|d2A2F2 A2F2D2|EFG2E2 C2E2G2|c2G2E2 C2E2G2|F4D2 D2F2D2|d2A2F2 A2F2D2|G2B2G2 E2F2G2|A2F2D2 D4g2|
f4d2 d2f2d2|a2f2d2 d2e2f2|e4c2 c2e2c2|g2e2c2 e2f2g2|f4d2 d2f2d2|a2f2d2 d2e2f2|f2d2B2 A2d2e2|f2d2d2 d4g2|
f4d2 d2f2d2|a2f2d2 d2e2f2|e4c2 c2e2c2|g2e2c2 e2f2g2|a2f2a2 g2e2g2|f2d2f2 e2c2A2|G2B2G2 E2F2G2|A2F2D2 D4||
